assets/uswds/img/material-icons/domain.svg

<svg xmlns="http://www.w3.org/2000/svg" width="24" height="24" viewBox="0 0 24 24"><path d="M12 7V3H2v18h20V7H12zM6 19H4v-2h2v2zm0-4H4v-2h2v2zm0-4H4V9h2v2zm0-4H4V5h2v2zm4 12H8v-2h2v2zm0-4H8v-2h2v2zm0-4H8V9h2v2zm0-4H8V5h2v2zm10 12h-8v-2h2v-2h-2v-2h2v-2h-2V9h8v10zm-2-8h-2v2h2v-2zm0 4h-2v2h2v-2z"/></svg>

<svg xmlns="http://www.w3.org/2000/svg" enable-background="new 0 0 24 24" height="24" viewBox="0 0 24 24" width="24"><g><path d="M0,0h24v24H0V0z" fill="none"/><path d="M12,7V3H2v18h20V7H12z M6,19H4v-2h2V19z M6,15H4v-2h2V15z M6,11H4V9h2V11z M6,7H4V5h2V7z M10,19H8v-2h2V19z M10,15H8v-2h2 V15z M10,11H8V9h2V11z M10,7H8V5h2V7z M20,19h-8v-2h2v-2h-2v-2h2v-2h-2V9h8V19z M18,11h-2v2h2V11z M18,15h-2v2h2V15z"/></g></svg>
